X: 3
T: The Donegal Tinker
R: reel
M: 4/4
L: 1/8
K: Gmaj
dddB cAGc|Addc AGEG |Addc AdcA|GEED CDEG |Ad (3ddd fd (3ddd|Addc AGEG | Addc AdcA |GEED CDEG ||AD (3DDD A,DDA|AGAB c2 Bc| ADDD A,CEG|AdcA {F}G4|AD (3DDD A,DDA|AGAB c2 Bc| ADDD A,CEG|AdcA {F}G4||dddB ccc A |dAAA afga|dddB cccA |Bcef gg fe|{c}dddB ccc A |dAAA afga|dddB cccA |Bcef gg fg ||aadd adbd | aada dggd |aada- abad |cdef ggfg|ad (3ddd adbd|adda- adge|abae gage |cdef gefe||


Tune 1770	Setting 15218

